src/assets/img/guardians.svg

<?xml version="1.0" encoding="UTF-8"?>
<!DOCTYPE svg PUBLIC "-//W3C//DTD SVG 1.1//EN" "http://www.w3.org/Graphics/SVG/1.1/DTD/svg11.dtd">
<!-- Creator: CorelDRAW 2019 (64-Bit) -->
<svg xmlns="http://www.w3.org/2000/svg" xml:space="preserve" width="4.1122mm" height="7.3905mm" version="1.1" style="shape-rendering:geometricPrecision; text-rendering:geometricPrecision; image-rendering:optimizeQuality; fill-rule:evenodd; clip-rule:evenodd"
viewBox="0 0 14.41 25.89"
 xmlns:xlink="http://www.w3.org/1999/xlink">
 <defs>
  <style type="text/css">
   <![CDATA[
    .fil0 {fill:black;fill-rule:nonzero}
   ]]>
  </style>
 </defs>
 <g id="Layer_x0020_1">
  <metadata id="CorelCorpID_0Corel-Layer"/>
  <path class="fil0" d="M6.74 0.6c0.5,0 0.95,0.2 1.27,0.53 0.33,0.33 0.53,0.78 0.53,1.27 0.31,-0.25 0.7,-0.4 1.13,-0.4 0.5,0 0.95,0.2 1.27,0.53 0.27,0.26 0.45,0.61 0.51,1 0.31,-0.26 0.71,-0.41 1.15,-0.41 0.5,0 0.95,0.2 1.28,0.53 0.33,0.33 0.53,0.78 0.53,1.28l0 2.35 -0 0.07 0 3.74c0,0.96 -0.47,1.59 -0.94,2.21 -0.39,0.52 -0.77,1.03 -0.77,1.72l0 10.88 -9.2 0 0 -10.64c0,-1.5 -0.87,-2.43 -1.72,-3.33 -0.9,-0.96 -1.78,-1.89 -1.78,-3.44l0 -5.52c0.64,-0.57 2.48,-2.38 3.05,-2.71 0.57,-0.33 1.14,-0.31 1.6,-0.1 0.24,0.11 0.45,0.28 0.61,0.48 0.11,0.13 0.19,0.29 0.25,0.44 0.32,-0.3 0.76,-0.49 1.23,-0.49zm6.99 8.09c-0.31,0.25 -0.7,0.4 -1.13,0.4 -0.5,0 -0.95,-0.2 -1.28,-0.53 -0.07,-0.07 -0.13,-0.14 -0.19,-0.22 -0.06,0.08 -0.12,0.15 -0.19,0.22 -0.33,0.33 -0.78,0.53 -1.27,0.53 -0.5,0 -0.95,-0.2 -1.27,-0.53 -0.07,-0.07 -0.13,-0.15 -0.19,-0.23 -0.06,0.08 -0.12,0.15 -0.19,0.22 -0.33,0.33 -0.78,0.53 -1.27,0.53 -0.04,0 -0.08,-0 -0.12,-0 0.52,0.82 0.84,1.93 0.98,3.26l-0.67 0.07c-0.15,-1.42 -0.51,-2.54 -1.1,-3.29 -0.57,-0.72 -1.38,-1.1 -2.48,-1.08l-0.34 0.01 0 -4.18 1.69 -1.69c0.21,-0.21 0.27,-0.47 0.23,-0.71 -0.03,-0.14 -0.1,-0.28 -0.19,-0.4 -0.1,-0.12 -0.22,-0.22 -0.36,-0.29 -0.26,-0.12 -0.6,-0.13 -0.94,0.05l-2.74 2.44 0 5.21c0,1.28 0.79,2.12 1.59,2.98 0.94,1 1.91,2.03 1.91,3.79l0 9.97 7.84 0 0 -10.2c0,-0.92 0.45,-1.52 0.91,-2.13 0.4,-0.53 0.8,-1.06 0.8,-1.8l0 -2.4zm-8.75 -1.03c-0.03,-0.12 -0.04,-0.25 -0.04,-0.38l0 -4.38 -1.26 1.26 0 3.22c0.48,0.02 0.91,0.12 1.3,0.28zm5.82 -0.33l-0 -0.04 0 -2.35 0 -0.07 0 -1.05c0,-0.31 -0.13,-0.59 -0.33,-0.79 -0.2,-0.2 -0.48,-0.33 -0.79,-0.33 -0.31,0 -0.59,0.13 -0.79,0.33 -0.2,0.2 -0.33,0.48 -0.33,0.78l0 0.01 0 3.47 0 0 0 0.01 0 0.01c0.01,0.3 0.13,0.57 0.33,0.77 0.21,0.2 0.49,0.33 0.8,0.33 0.31,0 0.59,-0.13 0.79,-0.33 0.19,-0.19 0.32,-0.46 0.33,-0.75l0 -0zm2.6 -3.19c-0.2,-0.2 -0.48,-0.33 -0.79,-0.33 -0.31,0 -0.59,0.13 -0.79,0.33 -0.2,0.2 -0.33,0.49 -0.33,0.8l0 2.35c0,0.31 0.13,0.59 0.33,0.79 0.2,0.2 0.49,0.33 0.8,0.33 0.31,0 0.59,-0.13 0.79,-0.33 0.2,-0.2 0.33,-0.49 0.33,-0.79l0 -2.35c0,-0.31 -0.13,-0.59 -0.33,-0.79zm-5.86 -2.52c-0.2,-0.2 -0.49,-0.33 -0.8,-0.33 -0.31,0 -0.59,0.13 -0.8,0.33 -0.2,0.2 -0.33,0.49 -0.33,0.8l0 4.87c0,0.31 0.13,0.59 0.33,0.79 0.2,0.2 0.48,0.33 0.8,0.33 0.31,0 0.59,-0.13 0.79,-0.33 0.2,-0.2 0.33,-0.49 0.33,-0.8l0 -4.87c0,-0.31 -0.13,-0.59 -0.33,-0.8z"/>
 </g>
</svg>

<?xml version="1.0" encoding="UTF-8" standalone="no"?>
<!-- Creator: CorelDRAW 2019 (64-Bit) -->

<svg
   xmlns:dc="http://purl.org/dc/elements/1.1/"
   xmlns:cc="http://creativecommons.org/ns#"
   xmlns:rdf="http://www.w3.org/1999/02/22-rdf-syntax-ns#"
   xmlns:svg="http://www.w3.org/2000/svg"
   xmlns="http://www.w3.org/2000/svg"
   xmlns:sodipodi="http://sodipodi.sourceforge.net/DTD/sodipodi-0.dtd"
   xmlns:inkscape="http://www.inkscape.org/namespaces/inkscape"
   xml:space="preserve"
   width="85"
   height="85"
   version="1.1"
   style="clip-rule:evenodd;fill-rule:evenodd;image-rendering:optimizeQuality;shape-rendering:geometricPrecision;text-rendering:geometricPrecision"
   viewBox="0 0 78.808159 78.784293"
   id="svg10"
   sodipodi:docname="guardians.svg"
   inkscape:version="0.92.3 (2405546, 2018-03-11)"><metadata
   id="metadata14"><rdf:RDF><cc:Work
       rdf:about=""><dc:format>image/svg+xml</dc:format><dc:type
         rdf:resource="http://purl.org/dc/dcmitype/StillImage" /><dc:title></dc:title></cc:Work></rdf:RDF></metadata><sodipodi:namedview
   pagecolor="#ffffff"
   bordercolor="#666666"
   borderopacity="1"
   objecttolerance="10"
   gridtolerance="10"
   guidetolerance="10"
   inkscape:pageopacity="0"
   inkscape:pageshadow="2"
   inkscape:window-width="1920"
   inkscape:window-height="1015"
   id="namedview12"
   showgrid="false"
   units="px"
   inkscape:zoom="2.9871406"
   inkscape:cx="3.078343"
   inkscape:cy="54.63403"
   inkscape:window-x="1920"
   inkscape:window-y="0"
   inkscape:window-maximized="1"
   inkscape:current-layer="svg10" />
 <defs
   id="defs4">
  <style
   type="text/css"
   id="style2">
   <![CDATA[
    .fil0 {fill:black;fill-rule:nonzero}
   ]]>
  </style>
 </defs>
 <g
   id="Layer_x0020_1"
   style="fill:#12d9e1;fill-opacity:1"
   transform="matrix(2.1483783,0,0,2.1483783,23.925014,11.563794)">
  <metadata
   id="CorelCorpID_0Corel-Layer" />
  <path
   class="fil0"
   d="m 6.74,0.6 c 0.5,0 0.95,0.2 1.27,0.53 C 8.34,1.46 8.54,1.91 8.54,2.4 8.85,2.15 9.24,2 9.67,2 c 0.5,0 0.95,0.2 1.27,0.53 0.27,0.26 0.45,0.61 0.51,1 0.31,-0.26 0.71,-0.41 1.15,-0.41 0.5,0 0.95,0.2 1.28,0.53 0.33,0.33 0.53,0.78 0.53,1.28 v 2.35 0.07 3.74 c 0,0.96 -0.47,1.59 -0.94,2.21 -0.39,0.52 -0.77,1.03 -0.77,1.72 V 25.9 H 3.5 V 15.26 C 3.5,13.76 2.63,12.83 1.78,11.93 0.88,10.97 0,10.04 0,8.49 V 2.97 C 0.64,2.4 2.48,0.59 3.05,0.26 3.62,-0.07 4.19,-0.05 4.65,0.16 4.89,0.27 5.1,0.44 5.26,0.64 5.37,0.77 5.45,0.93 5.51,1.08 5.83,0.78 6.27,0.59 6.74,0.59 Z m 6.99,8.09 c -0.31,0.25 -0.7,0.4 -1.13,0.4 -0.5,0 -0.95,-0.2 -1.28,-0.53 C 11.25,8.49 11.19,8.42 11.13,8.34 11.07,8.42 11.01,8.49 10.94,8.56 10.61,8.89 10.16,9.09 9.67,9.09 9.17,9.09 8.72,8.89 8.4,8.56 8.33,8.49 8.27,8.41 8.21,8.33 8.15,8.41 8.09,8.48 8.02,8.55 7.69,8.88 7.24,9.08 6.75,9.08 c -0.04,0 -0.08,0 -0.12,0 0.52,0.82 0.84,1.93 0.98,3.26 L 6.94,12.41 C 6.79,10.99 6.43,9.87 5.84,9.12 5.27,8.4 4.46,8.02 3.36,8.04 L 3.02,8.05 V 3.87 L 4.71,2.18 C 4.92,1.97 4.98,1.71 4.94,1.47 4.91,1.33 4.84,1.19 4.75,1.07 4.65,0.95 4.53,0.85 4.39,0.78 4.13,0.66 3.79,0.65 3.45,0.83 L 0.71,3.27 v 5.21 c 0,1.28 0.79,2.12 1.59,2.98 0.94,1 1.91,2.03 1.91,3.79 v 9.97 h 7.84 v -10.2 c 0,-0.92 0.45,-1.52 0.91,-2.13 0.4,-0.53 0.8,-1.06 0.8,-1.8 V 8.69 Z M 4.98,7.66 C 4.95,7.54 4.94,7.41 4.94,7.28 V 2.9 L 3.68,4.16 V 7.38 C 4.16,7.4 4.59,7.5 4.98,7.66 Z M 10.8,7.33 V 7.29 4.94 4.87 3.82 C 10.8,3.51 10.67,3.23 10.47,3.03 10.27,2.83 9.99,2.7 9.68,2.7 9.37,2.7 9.09,2.83 8.89,3.03 8.69,3.23 8.56,3.51 8.56,3.81 v 0.01 3.47 0 0.01 0.01 c 0.01,0.3 0.13,0.57 0.33,0.77 0.21,0.2 0.49,0.33 0.8,0.33 0.31,0 0.59,-0.13 0.79,-0.33 0.19,-0.19 0.32,-0.46 0.33,-0.75 v 0 z m 2.6,-3.19 c -0.2,-0.2 -0.48,-0.33 -0.79,-0.33 -0.31,0 -0.59,0.13 -0.79,0.33 -0.2,0.2 -0.33,0.49 -0.33,0.8 v 2.35 c 0,0.31 0.13,0.59 0.33,0.79 0.2,0.2 0.49,0.33 0.8,0.33 0.31,0 0.59,-0.13 0.79,-0.33 0.2,-0.2 0.33,-0.49 0.33,-0.79 V 4.94 c 0,-0.31 -0.13,-0.59 -0.33,-0.79 z M 7.54,1.62 C 7.34,1.42 7.05,1.29 6.74,1.29 6.43,1.29 6.15,1.42 5.94,1.62 5.74,1.82 5.61,2.11 5.61,2.42 v 4.87 c 0,0.31 0.13,0.59 0.33,0.79 0.2,0.2 0.48,0.33 0.8,0.33 0.31,0 0.59,-0.13 0.79,-0.33 0.2,-0.2 0.33,-0.49 0.33,-0.8 V 2.41 C 7.86,2.1 7.73,1.82 7.53,1.61 Z"
   id="path7"
   style="fill:#12d9e1;fill-opacity:1;fill-rule:nonzero"
   inkscape:connector-curvature="0" />
 </g>
</svg>
